X: 41919
T: Waiting For Janet
R: jig
M: 6/8
K: Dmixolydian
c dcA cAG|AGE DEG|
|:EED DEG|AAD DEG|ABA AGE|GED DEG|
AAD DEG|ABD GAB|~c3 BAG|1 A2D DEG:|2 A6-|A3 ABd||
|:~B3 ABd|[M:9/8]AAG ~E2D DEG|[M:6/8]AAD ABd|
~B3 ABd|[M:9/8]~F2E- EDD DEG|1 [M:6/8]A3 ABd:|2 [M:6/8]AAD DEG|

